!!!id: bhatk3202s
!!!sthayee: Raina andheri
!!!vol: 3
!!!page: 202
!!!raag: bihag
!!!taal: teentaal
!!!tempo: madhyalaya
**kern
!!data: // =  =  =  =/  =  =  =  =/  =  =  =  =/  =  >GM  G  M/
==1
4ryy
4ryy
4ryy
4ryy
=
4ryy
4ryy
4ryy
4ryy
=
4ryy
4ryy
4ryy
4ryy
=
4ryy
eq
4f
4e
4f
!!data: // >MN  >DN  %P  -/  -  >PG  -  M/  [G  -  S]  -/  -  -  S  S/
==2
fq
4b
aq
4b
[2gS
=
4g]
gq
2e
4f
=
2eH
[2ch
=
2c]
4c
4c
!!data: // >SN,  S  G  M/  P  -  N  -/  NS'  G'R'  S'N  DP/  >GM  >RG  -  GM/
==3
cq
4B
4c
4e
4f
=
2g
2b
=
8b
8cc
8ee
8dd
8cc
8b
8a
8g
=
eq
4f
dq
2e
8e
8f
!!>MN  >DN  %P  -/  =  =  =  =/  =  =  =  =/  =  =  =  =/
==
*-
